X:1
T:Cape Ann
M:3/4
L:1/4
K:D
 D/2D/2| E2 E| E2 F/2G/2| A2 D| D3| z2 D/2D/2| B2 B/2B/2| B A3/2 G/2|\
 A3| z2 d| d d3/2 d/2| d c B| A A A| F3| A A A| A- G F| E C E| D3|\
 z2 d/2d/2| d3/2 d/2 d| d c B| A3| D3| B3/2 B/2 B| B A G| A3| z2 d|\
 d/2 d3/2 d| d c B| A2 F| F2 A/2A/2| A3/2 A/2 A| A G F| E D3/2 E/2|\
 D3| z2||
